X: 28592
T: Murroe, The
R: polka
M: 2/4
K: Gmajor
|:Bd/B/ GB|B/c/d/B/ GB|A/B/A/G/ FA|GB/d/ gd|
Bd/B/ GB|B/c/d/B/ GB|A/B/A/G/ FA|1 G2 G2:|2 G2 GA||
|:Bc/d/ ef|g2 gf|e/g/f/e/ df|ed B/c/B/A/|
GB/d/ ef|g2 gf/e/|df af|e2 ed:|

